X:2018
T:Flour de civado
O:england
M:3/8
L:1/16
K:C
de|c2B2c2|d4ef|efgfgf|e2d2de|\
c2B2c2|d4ef|efg4|d4:|
|:de|f2dec2|B2ABd2|dec2B2|c2d2e2|\
f2dec2|B2ABd2|dec2B2|c4:|


